www/assets/icons/blinds_closed.svg

<svg width="24" height="24" viewBox="0 0 24 24" xmlns="http://www.w3.org/2000/svg" fill='currentColor'><path d="M20 18.125V2.125H4V18.125H2V20.125H13.25C13.25 21.095 14.03 21.875 15 21.875C15.97 21.875 16.75 21.095 16.75 20.125H22V18.125H20ZM18 10.125H16V8.125H18V10.125ZM14 10.125H6V8.125H14V10.125ZM14 12.125V14.125H6V12.125H14ZM16 12.125H18V14.125H16V12.125ZM18 6.125H16V4.125H18V6.125ZM14 4.125V6.125H6V4.125H14ZM6 18.125V16.125H14V18.125H6ZM16 18.125V16.125H18V18.125H16Z"/></svg>

<svg xmlns="http://www.w3.org/2000/svg" width="24" height="24" viewBox="0 0 24 24" fill='currentColor'><path d="M20 18.125v-16H4v16H2v2h11.25c0 .97.78 1.75 1.75 1.75s1.75-.78 1.75-1.75H22v-2zm-2-8h-2v-2h2zm-4 0H6v-2h8zm0 2v2H6v-2zm2 0h2v2h-2zm2-6h-2v-2h2zm-4-2v2H6v-2zm-8 14v-2h8v2zm10 0v-2h2v2z"/></svg>
